X: 13318
T: Flanagan Brother's, The
R: jig
M: 6/8
K: Dmajor
|:DFA DFA|GBc dcB|Add cde|fdf ecA|
DFA DFA|GBc dcB|Add cde|1 fdc d2 A:|2 fdc d2 e||
|:f2 d dcd|ecA ABc|ded dcd|eaa a2 g|
f2 d dcd|ecA ABc|dcA GFG|1 Adc d2 e:|2 Adc d3||
|:FBc dcB|fBc dcB|=Bff f2=f|fgf edc|
FBc dcB|fBc dcB|=Bff fec|1 dBB BAG:|2 dBB B3||
|:A3 G3|FAd fdB|Ace gec|dfe dcB|
ABA GAG|FAd fdB|Ace gec|1 dfe d2d:|2 dfe d2 A||

